X: 31
T:Killavil Jig
M:6/8
L:1/8
Q:120
S:THSP
R:jig
D:
K:Em
"Em"BEE BEE|d2f edB|"D"BAF FEF|DFA BAF|
"Em"BEE BEE|d2f edB|"D"BAF dAF|FED "Em"~E3:||:
"Em"e2f g2e|faf edB|"D"BAF FEF|DFA BAF|
"Em"e2f g2e|faf edB|"D"BAF dAF|1FED "Em"~E3:|2 FED "Em" Ed^c|]
